;****************************************************************************
; Continue?
;----------------------------------------------------------------------------
; PSG1+PSG2 = sad piano
;----------------------------------------------------------------------------
; @6 = decaying PSG
;****************************************************************************

Z t96 L

G @6v12o6 l8 crerrrer crerrrdr crerrrer crerrrer
H @6v12o6 l8 rdrdrfrd rdrdrfre rdrdrfrd rdrdrdrf
