;****************************************************************************
; Planelago 1: Lafto
;----------------------------------------------------------------------------
;     FM1 = bells
; FM2+FM3 = trumpet
;     FM4 = bass
;    PSG1 = whistle
;    PSG4 = hit-hat
;    PCM1 = jingle bells
;----------------------------------------------------------------------------
;  @0 = bells
;  @4 = basic PSG
; @11 = bass
; @12 = jingle bells
; @14 = decaying PSG
; @19 = trumpet
; @23 = 25% square wave
; @26 = 12.5% square wave
;****************************************************************************

Z t128 [r1]4 L

;----------------------------------------------------------------------------
; Bells
;----------------------------------------------------------------------------

!a l16 e8cdcdce8cd8c8d8
!b l16 e8cdcdce8cd8c4
!c l16 e8cc8c8de8e8e4

A @0v11o5 [!a!b!a!c]9

;----------------------------------------------------------------------------
; Trumpet
;----------------------------------------------------------------------------

!d c2.e8c8
!e r2e8c8d4
!f l16erddrccrccr4.
!g l16freerddrccr4.

!D e2.g8e8
!E r2g8e8f4
!F l16grffreereer4.
!G l16arggrffreer4.

!a c4.s16.r32 c8d8e8r8
!b c4.s16.r32 e8d8c8r8
!c [e8c16]4 e8c8
!A e4.s16.r32 e8f8g8r8
!B e4.s16.r32 g8f8e8r8
!C [g8e16]4 g8e8

BC [r1]4
B @19p3v14o5 [ !d!e!fr1 !d!e!gr1 ]2
C @19p3v13o5 [ !D!E!Fr1 !D!E!Gr1 ]2
B @23 [!f!e!gr1]2 @26 !ar1!br1!ar1!cr1
C @23 [!F!E!Gr1]2 @26 !Ar1!Br1!Ar1!Cr1

;----------------------------------------------------------------------------
; Bass
;----------------------------------------------------------------------------

!i l16 c8cd8cedc8cd&r4
!j l16 c8cd8cedc8cd8ee8

D @11v13o2 [r1]4 [[ l16 c8cd8cedc8cd&r4 c8cd8cedc8cd8ee8 ]2]8

;----------------------------------------------------------------------------
; Whistle
;----------------------------------------------------------------------------

!W l128 r8 e_d[_e_d]3 r16
!w l128 e_d[_e_d]3 r16

G @4v14o6 r1 r2.!W r1 r2!w!w!ws8
G [ [r2.!W]3 r2!w!w!ws8 ]8

;----------------------------------------------------------------------------
; Hit-hat
;----------------------------------------------------------------------------

!Z l16 r8n4n4 r8n4n4 r8n4r8r8n4
!Y l16 r8n4n4 r8n4n4 r8n4r8r16r16r16

J @14v15
J [r1]4 [!Z!Y!Z!Y]8

;----------------------------------------------------------------------------
; Jingle bells
;----------------------------------------------------------------------------

!z @12 c8r16r16 c8r16r16 c8r16c8c8.
!y @12 c8r16r16 c8r16r16 c8r16c8c16c16c16

K [r1]4 [!z!y!z!y]8
