;****************************************************************************
; Planelago 5: Kastar
;----------------------------------------------------------------------------
;   FM1~FM4 = intro organ
;   FM1+FM2 = organ
;       FM3 = bass
;       FM4 = ominous backing
; PSG1+PSG2 = creepy backing
;      PCM1 = percussion
;----------------------------------------------------------------------------
;  @4 = PSG
;  @5 = snare drum
; @11 = bass
; @13 = kick drum
; @18 = organ
;****************************************************************************

Z t120 [s1]8 L

;----------------------------------------------------------------------------
; Intro organ
;----------------------------------------------------------------------------

ABCD @18v12p3o5

A    c1e1
B K1 r4c1e2.
C K2 r2c1e2
D K3 r2.c1e4
ABCD s2.s8f+1r8 K0

EFGHIJKL [s1]4L

;----------------------------------------------------------------------------
; Organ
;----------------------------------------------------------------------------

!a l16crdrcrdrcrdrcrdr
!b l16K1rcrdrcrdrcrdrcrdK0
!c l16erdrerdrerdrerdr
!d l16K1rdrcrdrcrdrcrdrcK0
!e l16K1erdrerdrerdrerdrK0
!f l16K2rdrcrdrcrdrcrdrcK0

A @18v12p2o5 [!a!c!a!e]8
B @18v12p1o5 [!b!d!b!f]8

;----------------------------------------------------------------------------
; Bass
;----------------------------------------------------------------------------

C @11v13p3o1
C [r1]12 [[ l16 e8ce8eece8ce8eec d8cd8ddcd8cd8ddc ]2]5

;----------------------------------------------------------------------------
; Ominous backing
;----------------------------------------------------------------------------

D @18v13p3o2
D [c1c+1d1e+1]8

;----------------------------------------------------------------------------
; Creepy backing
;----------------------------------------------------------------------------

G @4v10o3
H @4v9o3K2

GH [r1]4  c1d1e2&e4.c8d1 c1d1e1f1
GH [r1]4 [c1d1e2&e4.c8d1 c1d1e1f1]2

;----------------------------------------------------------------------------
; Percussion
;----------------------------------------------------------------------------

!y @13c
!z @5c

K [r1]12
K [[ !y8.!y8!y16!z8!y8.!y8!y8.
K    !y8.!y8!y16!z8!y8.!z8!z8. ]2]5
