;****************************************************************************
; The Void
;----------------------------------------------------------------------------
;       FM1 = lead guitar
;       FM2 = bass guitar
;   FM3+FM4 = organ
;   FM3+FM4 = alternate lead
; PSG1+PSG2 = siren
;      PCM1 = kick drum
;      PCM2 = snare drum
;----------------------------------------------------------------------------
;  @5 = snare drum
;  @9 = lead guitar
; @11 = bass guitar
; @13 = kick drum
; @18 = organ
; @23 = 25% square wave
;****************************************************************************

Z t160 [r1]8 L

;----------------------------------------------------------------------------
; Organ + alt. lead
;----------------------------------------------------------------------------

CD @18v12p3o5
C c2s2e2s2 g1[s1]5 r%1
D s2d2s2f2 a1[s1]5 r%1

D K7
CD @23v13o4
CD l16 [[d8rd8re8]2 [d8rd8rc8]2 [e8re8rf8]2 [e8re8rd8]2
CD l16  [d8rd8re8]2 [d8rd8rc8]2 [f8rf8rg8]2 [f8rf8re8]2]2

D K7
CD @18v11
CD o5 c1s1d1s1e1s1f1s1
CD o5 c1s1d1s1e1s1g1s1

;----------------------------------------------------------------------------
; Lead guitar
;----------------------------------------------------------------------------

A @9v1p3o3 [r1]2
A l16 [ cdec)decdecde)cdef ]6
A l16 [ [cdecdecdecdecdef ]2 [ cdfcdecdfcdecdef]2 ]8

;----------------------------------------------------------------------------
; Bass guitar
;----------------------------------------------------------------------------

B @11v14p3o1 [s1]6 s1.[l16dccc]2 
B l16 K0 [[dccc]8 k1]16

;----------------------------------------------------------------------------
; Siren
;----------------------------------------------------------------------------

!e l32c_c+_d_d+_e4._d+_d_c+_cr4.
!f K1!eK0
!g K2!eK0
!h K3!eK0
!i K4!eK0

GH @4v4o4
G [r1]2 [!er1)2]3
H [r1]2 [!gr1)2]3
G [!er1!er1!fr1!fr1 !er1!er1!fr1!gr1]2
H [!gr1!gr1!hr1!hr1 !gr1!gr1!hr1!ir1]2

;----------------------------------------------------------------------------
; Percussion
;----------------------------------------------------------------------------

K @13 [r1]8 [[c16]16]32

L @5 [r1]7 r2[c16]8
L [l16 [c4]7 cccc]16
