;****************************************************************************
; Planelago 4: Obor
;----------------------------------------------------------------------------
;       FM1 = lead bass
;       FM2 = background bass
; PSG1+PSG2 = creepy background
;      PSG4 = storm wind
;      PCM1 = percussion
;      PCM2 = thunder
;----------------------------------------------------------------------------
;  @2 = distortion bass
;  @4 = PSG
;  @5 = snare drum
; @11 = background bass
; @13 = kick drum
; @24 = slap bass
; @27 = thunder
;****************************************************************************

Z t120 [s1]8 L

;----------------------------------------------------------------------------
; Storm
;----------------------------------------------------------------------------

J @4v0
;J   l32 n4[)s]15 s1 [(s]15s
;J   l32 n5[)s]15 s1 [(s]15s
J [ l16 n4[)s]7  s1 [(s]7s
J   l16 n5[)s]7  s1 [(s]7s ]7

;----------------------------------------------------------------------------
; Foreground used-to-be-a-bass
;----------------------------------------------------------------------------

!a e8r16c8r16e8e8c8c8r8
!b e8r16c8r16e8e8c8c16r16c8
!c e8r16c8r16e8e8c8c16r16d8
!d e8r16e8r16c8e8c8e8r8
!e d+8r16d+8r16c8d+8c8d+8r8
!f d-8r16d-8r16c8d-8c8d-8r8
!g d8r16d8r16c8d8c8d8r8

AC @23v13p3o3 [s1]4
C K7
AC  !ar1!a!c
;AC  !a!b!a!b
AC [!a!b!a!c]2
AC [!d!e!f!g]2
AC  !ar1!ar1

;----------------------------------------------------------------------------
; Background bass
;----------------------------------------------------------------------------

B @11v14p3o1 [s1]8
B l16 [[ereereer]4 [crccrccr]2 [drddrddr]2]5

;----------------------------------------------------------------------------
; Creepy backing
;----------------------------------------------------------------------------

GH @4v8o3 [r1]8
G [r1]8 [e1d1c1d1]2 r%1
H [r1]8 [g1f1e1f1]2 r%1

;----------------------------------------------------------------------------
; Percussion
;----------------------------------------------------------------------------

!Y @13c
!Z @5c

K [s1]7 r2.l16[!Y]4 [!Z8!Y16!Z8!Z8!Y16!Z8!Z4.]20

;----------------------------------------------------------------------------
; Thunder
;----------------------------------------------------------------------------

L @27 [s2c1.]2[s1]4 [s2c1.[s1]2]4 [s2c1.]2
