;****************************************************************************
; Planelago 2: Epoin
;----------------------------------------------------------------------------
;       FM1 = bells
;       FM2 = bass
;   FM3+FM4 = trumpets
;      PSG1 = whistle
; PSG1+PSG2 = lead (after trumpets)
;      PSG4 = hit-hat
;      PCM1 = jingle bells
;----------------------------------------------------------------------------
;  @4 = PSG
; @11 = bass
; @12 = jingle bells
; @17 = bells
; @19 = trumpets
;****************************************************************************

Z t137 [r1]4 L

!A l16g8eg8e8eg8e8e4
!B l16g8eg8e8eg8e8e8g8
!C l16g8eg8e8eg8e8g8e8

;----------------------------------------------------------------------------
; Bells
;----------------------------------------------------------------------------

!a l16 e8ce8c8ce8c8c4
!b l16 e8ce8c8ce8c8c8e8
!c l16 e8ce8c8ce8c8e8c8

A @17v10o4 [!a!b!a!c]7

;----------------------------------------------------------------------------
; Bass
;----------------------------------------------------------------------------

!i l16c8cd8cedc8cd&r4
!j l16c8cd8cedc8cd8ee8

B @11v12o2 [r1]4 [!i!j]12

;----------------------------------------------------------------------------
; Trumpets
;----------------------------------------------------------------------------

!d l16r8eredrc8reredr8
!e l16erce8drercrdrcec
!f l16ercercrercrercec
!g l16ercercrcrdrerfcr
!h l16r8eredrc8reredr8
!D l16r8grgfre8rgrgfr8
!E l16greg8frgrerfrege
!F l16gregrergrergrege
!G l16gregrererfrgraer
!H l16r8grgfre8rgrgfr8

C @19v14o5 [r1]4 [e1!d!e!f e1!d!e!g]2 [r1]8
D @19v13o5 [r1]4 [g1!D!E!F g1!D!E!G]2 [r1]8

;----------------------------------------------------------------------------
; 2nd half lead (PSG) + whistle
;----------------------------------------------------------------------------

!W l128 r8 e_d[_e_d]7
!w l128 e_d[_e_d]3 r16

G @4v13o6 [r1]3 r2!w!w!w!w
G @4v13o6 [ [ !ws8!ws8!w!w!ws8 ]3 !ws8!ws8!w!w!w!w ]4
G @4v13o4 [!h!f!h!g]2

H [r1]4 [r1]16
H @4v12o4 [!H!F!H!G]2

;----------------------------------------------------------------------------
; Hit-hat
;----------------------------------------------------------------------------

J @14v13
J [r1]4 [ [l16 n4,8n5n5 n4,8n5n5 n4,8n5n4,8n4n5n5]4 ]6

;----------------------------------------------------------------------------
; Jingle bells
;----------------------------------------------------------------------------

K [r1]4 [@12 c4c4c4 c16c16c8]24
