Z [r1]4 L

;----------------------------------------------------------------------------
; Leads, also whistle and organ when free
;----------------------------------------------------------------------------

!a c32r16.e32r16. c32r32e32r32 s8s2
!b c32r16.e32r16. c32r32e32r16. c32r16.c32r32e32r16.c32r32e32r16.s16
!B c32r16.e32r16. c32r32e32r16. c32r16.c32r32f+32r16.c32r32f+32r16.s16

!o r4 @18>(7c2 r4 @23<)7
!w r4 (5>2[e128d128]4<2)5 r8.s2
;>

A @23v15p3o4
B @23v15p3o4K7
G @4v15o4
H @4v15o4K7

AB !a(5!a)5 r1r1 !b!br1r1 !B!Br1r1 !b!b!o!o !B!B!o!o !a(3!a)3 r1r1
GH r1r1 !a(5!a)5 r1r1!b!b r1r1!B!B !w!w!b!b !w!w!B!B r1r1 !a(3!a)3

;----------------------------------------------------------------------------
; Bass
;----------------------------------------------------------------------------

C @11v6p3o1
D @10v10p3o2

CD [s1]3 s2.f4
CD [ e4e4e8.e8.c8 &r8c8c8c8e8d8c16e8.
CD   e4e4e8.e8.c8 &r8c8c8c8f4e4 ]5

;----------------------------------------------------------------------------
; Percussion
;----------------------------------------------------------------------------

K [r1]4 @5
K [[ @13c4 @5c4 @13c8c16c16 @5c4 ]3
K    @13c4 @5c4 @13c8c16c16 @5c8c16c16 ]5
