;****************************************************************************
; Planelago 3: Veloot
;----------------------------------------------------------------------------
;   FM1+FM2 = lead guitars
;   FM3+FM4 = intro synth
;   FM3+FM4 = bass
;      PSG1 = main background
; PSG2+PSG3 = piano background
;      PCM1 = percussion
;      PCM2 = tick-tock
;----------------------------------------------------------------------------
;  @1 = sawtooth wave
;  @5 = snare drum
;  @6 = PSG
;  @9 = lead guitar
; @10 = bass (#1)
; @11 = bass (#2)
; @13 = kick drum
; @20 = tick
; @21 = tock
;****************************************************************************

Z [s1]32 L

;----------------------------------------------------------------------------
; Lead guitars
;----------------------------------------------------------------------------

!i l16 er8.er8.e8dcr8er
!j l16 &r8d8cer8e8dcr4
!k l16 &r8d8cer8s8ssr4
!l l16 &r8d8ecr8s8ssr4
!I l16 gr8.gr8.g8fer8gr
!J l16 &r8f8egr8g8fer4
!K l16 &r8f8egr8s8ssr4
!L l16 &r8f8ger8s8ssr4

AB @9v15p3o3
A [s1]16 [ !i!k!i!l !i!k!i!j ]2
B [s1]24   !I!K!I!L !I!K!I!J

AB v13
A [       l16 er8.er8.e8dcr8er l16 &r8d8cer8e8dcr4   ]8
B [[s1]4 [l16 gr8.gr8.g8fer8gr l16 &r8f8egr8g8fer4]2 ]2

;----------------------------------------------------------------------------
; Synth (must come before bass below)
;----------------------------------------------------------------------------

;!z l32 )s)s)s )s)s)s)s )s)s)s)s )s)s)s)s s2
;!h l32 s2 s(s(s(s (s(s(s(s (s(s(s(s (s(s(s(r
!z l32 )s)s)s s)s)s)s s)s)s)s s)s)s)s s2
!h l32 s2 s(s(s(s s(s(s(s s(s(s(s s(s(s(r

!c p2l32 c!z
!d p3l32 d!z
!e p3l32 e!z
!f p3l32 f!z
!g p1l32 g!z

CD @1o3v0

C [ !d!h!c!h !d!h!e!h ]4
D [ !f!h!e!h !f!h!g!h ]4

;----------------------------------------------------------------------------
; Bass
;----------------------------------------------------------------------------

C @11v15p3o1
D @10v12p3o2
CD [ e4e4e8.e8.c8 &r8c8c8c8e8d8c16e8.
CD   e4e4e8.e8.c8 &r8c8c8c8f4e4 ]6

;C @24v15p3o2
;C [ e4e4e8.e8.c8 &r8c8c8c8e8d8c16e8.
;C   e4e4e8.e8.c8 &r8c8c8c8f4e4 ]6

;----------------------------------------------------------------------------
; Background
;----------------------------------------------------------------------------

G @6o4v13
G o4 l16 [ [defdefdefdefdefe]2 [cdecdecdecdecded]2 ]8
G o3 l16 [ [defdefdefdefdefe]2 [cdecdecdecdecded]2 ]6

HI @6o4v11
H [s1]8 [ l16 s8ecees8 s8ecees8 s8ecee8d8d8ee8ce ]24
I [s1]8 [ l16 s8afaas8 s8afaas8 s8afaa8g8g8aa8fa ]24

;----------------------------------------------------------------------------
; Percussion
;----------------------------------------------------------------------------

K [s1]31 s2. @5c8c16c16
K [ @13c4 @5c4 @13c8c16c16 @5c4
K   @13c4 @5c4 @13c8c16c16 @5c8c16c16 ]12

;----------------------------------------------------------------------------
; Tick-tock
;----------------------------------------------------------------------------

!c l8 [@20c@21c]4
L [s1]32 [s1s1!cs1]4
