;****************************************************************************
; Score tally ~♪
;----------------------------------------------------------------------------
;   FM1+FM2 = bells
;       FM3 = trumpet backing
;       FM4 = marimba backing (stereo!)
; PSG1+PSG2 = square backing
;----------------------------------------------------------------------------
;  @0 = bells
;  @4 = PSG
; @19 = trumpet
; @25 = marimba
;****************************************************************************

Z t160

;----------------------------------------------------------------------------
; Bells
;----------------------------------------------------------------------------

AB @0v15p3o5
A     l8cedfegfa [c4.d4.e4]2 [d4.e4.f4]2 l8rcc4cc4. r4     [l16ce(3]4 r
B r16 l8dfegfagb r2&r4&r8&r16 [r1]4                 r4&r32 [l16df(3]4 r

;----------------------------------------------------------------------------
; Trumpet backing
;----------------------------------------------------------------------------

C @19v9p3o5
C s1 c1d1e1f1 l16[cdef+k2]4K0 r%1

;----------------------------------------------------------------------------
; Marimba backing
;----------------------------------------------------------------------------

D @25v7o5 l16[[p1cp2dp1ep2f]4]6 p3g4r%1

;----------------------------------------------------------------------------
; Square backing
;----------------------------------------------------------------------------

GH @4v12o4
G r1 [c4.e2r8]2 [d4.f2r8]2 r8 l16crcr8.crcr8. l32ed+dc+c8 r%1
H r1 [e4.g2r8]2 [f4.a2r8]2 r8 l16erer8.erer8. l32g+gf+fe8 r%1
