;****************************************************************************
; Title screen
;****************************************************************************

Z t137

!a c1&r1
!A e1.e2
!b d1&r1
!B f1.f2
!c f1&r1
!C a1.a2
!d e1&r1
!D g1.g2
!x r1&r1

!e r1c8r8e4r2
!E r1&r8d8r8d4r4.

ABCD @18o2r128
EF @10v11o2r128
Z r128L

A !a!x!c!x
B !A!x!C!x
C !x!b!x!d
D !x!B!x!D
E !e!e!e!e
F !E!E!E!E
