Z t160

!a c8r8e8r8r2
!b r8d8r8d8r2
!c l16ce(((
!d l16df(((
!c p3!c!c!c!c
!d r32p3!d!d!d!d

A @0p2o5r128
B @0p1o5r128
G @16v10o4r128
H @16v9o4r128
Z r128

A !a!a!a!a!a!a!a!a!a!a!a!a!a!a!a!a!c
B !b!b!b!b!b!b!b!b!b!b!b!b!b!b!b!b!d
G c1d1e1d1c1d1e1f1g1f1e1d1f1e1d1c1&c1
H e1f1g1f1e1f1g1a1b1a1g1f1g1g1f1e1&e1
